X:1
T:Eskişehir, 87.87 D
T:Eskişehir, 87.87 D
T:Victor H. Benke, 1903
T:Public Domain Courtesy of the Cyber Hymnal™
C:Victor H. Benke, 1903
Z:Public Domain
Z:Courtesy of the Cyber Hymnal™
%%score 1 2
L:1/8
Q:1/4=108
M:4/4
K:Eb
V:1 treble 
V:2 bass 
V:1
 [EG]2 [EG]2 [EB]2 [EA]2 | [EG]3 [EG] [DG]2 [DF]2 | [CE]2 [EF]2 [EG]2 [Ec]2 | [DF]3 [D^F] [EG]4 | %4
 [EG]2 [EG]2 [Ge]2 [Ge]2 | [^Fd]3 [F=A] [Fc]2 [GB]2 | [=EB]2 [EB]2 [FB]2 [Fd]2 | %7
 [=Ed]3 [_Ec] [DB]4 | [DA]2 [EA]2 [FA]2 [DF]2 | [EB]3 [Ec] [Dc]2 [DB]2 | [Ee]2 [Ad]2 [Gc]2 [FB]2 | %11
 [EB]3 [FA] [EG]4 | [GB]2 [GB]2 [Gc]2 [GB]2 | [^F=A]3 [=Fe] [Ge]2 [GB]2 | %14
 [EB]2 [EA]2 [CG]2 [_CF]2 | [B,E]3 [B,F] [B,E]4 |] %16
V:2
 [E,B,]2 [D,B,]2 [_D,G,]2 [C,A,]2 | [B,,B,]3 [=A,,C] [B,,B,]2 [=B,,=A,]2 | %2
 [C,G,]2 [_C,=A,]2 [B,,B,]2 [B,,A,]2 | [B,,A,]3 [B,,A,] [E,B,]4 | %4
 [E,B,]2 [D,B,]2 [C,B,]2 [C,=A,]2 | [D,A,]3 [D,D] [G,E]2 [G,D]2 | [G,C]2 [_G,^C]2 [F,D]2 [F,B,]2 | %7
 [C,B,]3 [F,=A,] [B,,B,]4 | [B,,B,]2 [C,B,]2 [D,B,]2 [A,B,]2 | [G,B,]3 [^F,=A,] [=F,_A,]2 [A,B,]2 | %10
 [G,B,]2 [F,B,]2 [E,B,]2 [D,B,]2 | [C,B,]3 [D,B,] [E,B,]4 | [E,E]2 [E,D]2 [E,_D]2 [E,D]2 | %13
 [E,C]3 [E,_C] [E,B,]2 [E,_D]2 | [A,_D]2 [A,C]2 [A,,B,]2 [A,,A,]2 | [B,,G,]3 [B,,A,] [E,G,]4 |] %16

